X:1
T:Huayno Step
C:Original Andean-style study
S:Public domain or original as noted in notes.md
M:2/4
L:1/8
Q:1/4=104
K:Gmix
H:G mixolydian starter arrangement for Andean Duct Flutes (G). Refs #1
G B d B | A c d c | G B d e | d4 |
B d e d | c A G A | B d c A | G4 |
G A B d | e d B A | G A B d | e4 |
d e g e | d B A c | B A G A | G4 |]
